X: 339
T:Mozart's Rome Waltz. JaW.338
M:3/8
Q:30
S:James Winder Ms, Lancashire, 1835-41
R:Waltz
O:England
A:Wyresdale,Lancashire
H:1/8
Z:vmp.Chris Partington, Aug 2004
K:G
D|B>AG|{A}GFG|^GAA|A2D|c>BA|ABc|{^c}d2B|G2:|!
|:A/4G/4F/4E/4|D2c/4B/4A/4G/4|F2A/4G/4F/4E/4|D2c/4B/4A/4G/4|!
FFD|{A}G/F/G/A/B/c/|d2B|A e/d/ F/A/|G2:|!
|:"TRIO"
K:C
G|c/B/c/d/e/f/|"Music runs out here"g2e|d|]
